!!!!SEGMENT: pl-gd--ee-1638--005-019_marenzio-luca--il-primo-libro-de-madrigali-spirituali-a-cinque-voci-tal-hor-dal-cor.krn
!!!cenid: 15xx:972
!!!COM: Marenzio, Luca
!!!COM-rismID: pe30003955
!!!CDT: ~1553-1599/08/22
!!!CNT: Italian
!!!GTL: Il Primo libro de madrigali spirituali a cinque voci
!!!OTL: Tal’hor dal cor
!!!OMV: 019
!!!PDT: 1588
!!!AGN:
!!!SMS-siglum: PL-GD
!!!SMS-shelfmark: Ee 1638
!!!SMS-shelfwork: 005-019 G
!!!SMS-variant:
!!!SMS-altvar:
!!!NIFC-rismSourceID: 1001202747
!!!NIFC-rismChildID: 990039269
!!!NIFC-islandoraID: pl-gd:57883
!!!URL-pdf-islandora: https://repozytorium.nifc.pl/islandora/object/pl-gd%3A57883/datastream/PDF/view
!!!URL-scan: https://polish.musicsources.pl/pl/lokalizacje/galeria/klocki-introligatorskie/655 @EN{Scan on Polish Music Sources Website} @PL{Skany w portalu Dziedzictwo Muzyki Polskiej w otwartym dostępie}
!!!IIIF: https://repozytorium.nifc.pl/islandora/object/plgd%3A57883/datastream/IIIF/view
!!!ONB-nifc: UWAGA: zbiór na stronach: Canto: s. 666-677, Alto: s. 514-525, Tenore: s. 362-373, Bassus: s. 210-221, Quinto: s. 58-69. Uwaga: utwory podzielone wg tytułów w spisach treści dostępnych na końcu każdej księgi głosowej.
!!!AIN: 1 alto 1 bass 1 soprn 2 tenor
!!!key:
**kern	**text	**kern	**text	**kern	**text	**kern	**text	**kern	**text
*part4	*part4	*part3	*part3	*part5	*part5	*part2	*part2	*part1	*part1
*staff4	*staff4	*staff3	*staff3	*staff5	*staff5	*staff2	*staff2	*staff1	*staff1
*I"BASSO	*	*I"TENORE	*	*I"QVINTO	*	*I"ALTO	*	*I"CANTO	*
*mI"Basso	*	*mI"Tenore	*	*mI"Quinto	*	*mI"Alto	*	*mI"Soprano	*
*I'B	*	*I'T	*	*I'V 5	*	*I'A	*	*I'S	*
*Ibass	*	*Itenor	*	*Itenor	*	*Ialto	*	*Isoprn	*
*ICvox	*	*ICvox	*	*ICvox	*	*ICvox	*	*ICvox	*
*clefC4	*	*clefC3	*	*clefC3	*	*clefC2	*	*clefG2	*
*mclefF4	*	*mclefGv2	*	*mclefGv2	*	*mclefG2	*	*	*
*k[b-]	*	*k[b-]	*	*k[b-]	*	*k[b-]	*	*k[b-]	*
*F:	*	*F:	*	*F:	*	*F:	*	*F:	*
*M2/1	*	*M2/1	*	*M2/1	*	*M2/1	*	*M2/1	*
*met(c)	*	*met(c)	*	*met(c)	*	*met(c)	*	*met(c)	*
=1-	=1-	=1-	=1-	=1-	=1-	=1-	=1-	=1-	=1-
!!!OMD:
!!!OMD-mod: Quinta parte
*xywh-#219:4620,578,3415,851	*	*xywh-#371:4754,544,3299,816	*	*xywh-#67:4512,582,3392,780	*	*xywh-#523:4634,497,3326,810	*	*xywh-#675:4658,463,3418,841	*
!LO:TX:i:t=Quinta parte:mod=	!	!LO:TX:i:t=Quinta parte:mod=	!	!LO:TX:i:t=Quinta parte:mod=	!	!	!	!LO:TX:i:t=Quinta parte:mod=	!
!	!	!	!	!	!LO:MO:mod=Tal'	!	!	!	!
00r	.	0r	.	1f\	TAl'	0r	.	1r	.
.	.	.	.	2e\	hor	.	.	2r	.
!	!	!	!	!	!	!	!	!	!LO:MO:mod=Tal'
.	.	.	.	2f\	dal	.	.	2a/	TAl'
=2-	=2-	=2-	=2-	=2-	=2-	=2-	=2-	=2-	=2-
!	!	!	!LO:MO:mod=Tal'	!	!	!	!	!	!
.	.	1f\	TAl'	1d\	cor	1r	.	2b-/	hor
.	.	.	.	.	.	.	.	2a/	dal
.	.	2e\	hor	1r	.	2r	.	1cc\	cor
!	!	!	!	!	!	!	!LO:MO:mod=Tal'	!	!
.	.	2f\	dal	.	.	2a\	TAl'	.	.
=3-	=3-	=3-	=3-	=3-	=3-	=3-	=3-	=3-	=3-
*	*	*	*	*	*ij	*	*	*	*
1r	.	1d\	cor	1f\	Tal'	2b-\	hor	1r	.
.	.	.	.	.	.	2a\	dal	.	.
!	!LO:MO:mod=Tal'	!	!	!	!	!	!	!	!
1A\	TAl'	00r	.	2e\	hor	1cc\	cor	2r	.
*	*	*	*	*	*	*	*	*	*ij
.	.	.	.	2f\	dal	.	.	2cc\	Tal'
=4-	=4-	=4-	=4-	=4-	=4-	=4-	=4-	=4-	=4-
2B-\	hor	.	.	2d\	cor	2r	.	2dd\	hor
*	*	*	*	*	*Xij	*	*	*	*
2A/	dal	.	.	1f\	ſi	1a\	ſi	2cc\	dal
1c\	cor	.	.	.	.	.	.	1cc\	cor
*	*	*	*	*	*	*	*	*	*Xij
.	.	.	.	4e\	mo-	4g\	mo-	.	.
.	.	.	.	4c/	-u'vn	4e/	-u'vn	.	.
=5-	=5-	=5-	=5-	=5-	=5-	=5-	=5-	=5-	=5-
0r	.	.	.	4d\	cal-	4f\	cal-	2r	.
.	.	.	.	4d\	-do	4f\	-do	.	.
.	.	.	.	8d\	ven-	8f\	ven-	2ff\	Tal'
.	.	.	.	8e\	.	8g\	.	.	.
.	.	.	.	8f\	.	8a\	.	.	.
!	!	!	!	!LO:SIC:v:t=custos a	!	!LO:SIC:v:t=custos cc	!	!	!
.	.	.	.	8g\	.	8b-\	.	.	.
*	*ij	*	*ij	*	*	*	*	*	*
!	!	!	!	!LO:LB:g=original	!	!LO:LB:g=original	!	!	!
*	*	*	*	*xywh-#67:4539,1228,3338,753	*	*xywh-#523:4624,1167,3348,626	*	*	*
.	.	1A/	Tal'	1a\	.	1cc\	.	2ee\	hor
.	.	.	.	.	.	.	.	2ff\	dal
=6-	=6-	=6-	=6-	=6-	=6-	=6-	=6-	=6-	=6-
2r	.	2B-/	hor	4.d\	-to	1f\	-to	2dd\	cor
.	.	.	.	8e\	.	.	.	.	.
2F/	Tal'	2A/	dal	2f\	.	.	.	4r	.
!	!	!	!	!	!	!	!	!LO:SIC:v:t=custos g	!
*	*	*	*	*	*	*	*	*	*ij
.	.	.	.	.	.	.	.	4a/	Tal'
!	!	!	!	!	!	!	!	!LO:LB:g=original	!
*	*	*	*	*	*	*	*	*xywh-#675:4647,1121,3429,808	*
2E/	hor	1c\	cor	4r	.	2r	.	2g/	hor
.	.	.	.	4c/	Tal'	.	.	.	.
2F/	dal	.	.	2A/	hor	4r	.	2a/	dal
.	.	.	.	.	.	4a\	Tal'	.	.
=7-	=7-	=7-	=7-	=7-	=7-	=7-	=7-	=7-	=7-
2D/	cor	2r	.	2d\	dal	4b-\	hor	2f/	cor
*	*Xij	*	*Xij	*	*	*	*	*	*Xij
.	.	.	.	.	.	4a\	dal	.	.
1A\	ſi	2e\	Tal'	2c/	cor	2a\	cor	1cc\	ſi
.	.	4f\	hor	2r	.	2cc\	ſi	.	.
.	.	4e\	dal	.	.	.	.	.	.
4B-\	mo-	4g\	cor	4r	.	4b-\	mo-	4dd\	mo-
!LO:SIC:v:t=custos c	!	!LO:SIC:v:t=custos g	!	!	!	!	!	!	!
!	!	!	!	!	!	!	!LO:MO:mod=-uv'n	!	!
4d\	-u'vn	4f\	ſi	4d\	ſi	4a\	-ue_vn	4ff\	-u'vn
=8-	=8-	=8-	=8-	=8-	=8-	=8-	=8-	=8-	=8-
!LO:LB:g=original	!	!LO:LB:g=original	!	!	!	!	!	!	!
*xywh-#219:4664,1244,3360,731	*	*xywh-#371:4754,1133,3310,696	*	*	*	*	*	*	*
4c\	cal-	4g\	mo-	4e\	mo-	2cc\	cal-	4ee\	cal-
!	!	!	!	!	!LO:MO:mod=-uv'n	!	!	!	!
4c\	-do	4e\	-u'vn	4g\	-ue_vn	.	.	4ee\	-do
8c\	ven-	4g\	cal-	4c/	cal-	2cc\	-do	8ee\	ven-
8B-\	.	.	.	.	.	.	.	8dd\	.
8A\	.	4a\	-do	4e\	-do	.	.	8cc\	.
8G/	.	.	.	.	.	.	.	8b-\	.
1F/	.	8a\	ven-	8f\	ven-	1.cc\	ven-	1a/	.
.	.	8g\	.	8e\	.	.	.	.	.
.	.	8f\	.	8f\	.	.	.	.	.
.	.	8e\	.	8g\	.	.	.	.	.
.	.	1f\	.	1a\	.	.	.	.	.
=9-	=9-	=9-	=9-	=9-	=9-	=9-	=9-	=9-	=9-
1c\	-to	.	.	.	.	.	.	1cc\	-to
.	.	2e\	-to	2g\	-to	2c/	-to	.	.
2r	.	2r	.	2r	.	2r	.	2r	.
1F/	Per	1A/	Per	1f\	Per	1a\	Per	1cc\	Per
=10-	=10-	=10-	=10-	=10-	=10-	=10-	=10-	=10-	=10-
.	.	.	.	.	.	.	.	.	.
!	!	!	!	!LO:SIC:v:t=custos d	!	!	!	!	!
1D/	ri-	1A/	ri-	2f\	ri-	1a\	ri-	1ff\	ri-
!	!	!	!	!LO:LB:g=original	!	!	!	!	!
*	*	*	*	*xywh-#67:4459,1780,3433,726	*	*	*	*	*
.	.	.	.	2d\	-mem-	.	.	.	.
2E/	-mem-	2c/	-mem-	1G/	-bra(n)-	2g\	-mem-	2ee\	-mem-
=11-	=11-	=11-	=11-	=11-	=11-	=11-	=11-	=11-	=11-
!	!	!LO:MO:mod=!null:null	!	!	!	!	!	!	!
!	!	!LO:N:acc=#	!	!	!	!	!	!	!
1G/	-bran-	1Bn/	-bran-	.	.	1.g\	-bran-	1dd\	-bran-
.	.	.	.	2d\	-za	.	.	.	.
1G/	-za	1c\	-za	2.g\	de	.	.	2dd\	-za
!	!	!	!	!	!	!LO:SIC:v:t=custos cc	!	!	!
.	.	.	.	.	.	2d/	-za	2.gg\	de
.	.	.	.	4f\	l'an-	.	.	.	.
=12-	=12-	=12-	=12-	=12-	=12-	=12-	=12-	=12-	=12-
!	!	!	!	!	!	!LO:LB:g=original	!	!	!
*	*	*	*	*	*	*xywh-#523:4570,1707,3369,734	*	*	*
2.c\	de	1r	.	4e\	-ti-	2r	.	.	.
.	.	.	.	4d\	-co	.	.	4ff\	l'an-
.	.	.	.	2c/	ſtra-	2.cc\	de	4ee\	-ti-
!	!	!	!	!	!	!	!	!LO:SIC:v:t=custos cc	!
4B-\	l'an-	.	.	.	.	.	.	4dd\	-co
!	!	!	!	!	!	!	!	!LO:LB:g=original	!
*	*	*	*	*	*	*	*	*xywh-#675:4679,1704,3397,657	*
4A/	-ti-	2.c/	de	2F/	-le	.	.	2cc\	ſtra-
4G/	-co	.	.	.	.	4b-\	l'an-	.	.
2.F/	ſtra-	.	.	2r	.	4a\	-ti-	2cc\	-le
.	.	4B-y/	l'an-	.	.	4g\	-co	.	.
=13-	=13-	=13-	=13-	=13-	=13-	=13-	=13-	=13-	=13-
.	.	4A/	-ti-	4F/	de	1f\	ſtra-	2r	.
4E/	.	4G/	-co	4G/	l'an-	.	.	.	.
!LO:SIC:v:t=custos C	!	!	!	!	!	!	!	!	!
2D/	.	2F/	ſtra-	4A/	-ti-	.	.	2dd\	E
.	.	.	.	4B-/	-co	.	.	.	.
!LO:LB:g=original	!	!	!	!	!	!	!	!	!
*xywh-#219:4609,1833,3371,665	*	*	*	*	*	*	*	*	*
1C/	-le	2G/	-le	2c/	ſtra-	2e/	-le	2ee\	ri-
!	!	!LO:SIC:v:t=custos d	!	!	!	!	!	!	!
.	.	2c/	E	4G/	-le	4r	.	2ee\	-pen-
.	.	.	.	4g\	E	4e/	E	.	.
!	!	!LO:LB:g=original	!	!	!	!	!	!	!
=14-	=14-	=14-	=14-	=14-	=14-	=14-	=14-	=14-	=14-
*	*	*xywh-#371:4732,1710,3386,718	*	*	*	*	*	*	*
2r	.	2d\	ri-	2f\	ri-	2a\	ri-	2ff\	-ſan-
2c\	E	2A/	-pen-	2e\	-pen-	2a\	-pen-	2cc\	-do
2d\	ri-	2B-/	-ſan-	2d\	-ſan-	1f\	-ſan-	2r	.
*	*	*	*	*	*	*	*	*	*ij
2A/	-pen-	2F/	-do	4c/	-do	.	.	2cc\	E
.	.	.	.	4c/	E	.	.	.	.
=15-	=15-	=15-	=15-	=15-	=15-	=15-	=15-	=15-	=15-
2B-\	-ſan-	2r	.	2d\	ri-	2f\	-do	2b-/	ri-
*	*	*	*ij	*	*	*	*	*	*
!	!	!	!	!LO:SIC:v:t=custos B	!	!	!	!	!
2F/	-do	2c/	E	2A/	-pen-	4r	.	2a/	-pen-
*	*	*	*	*	*	*	*ij	*	*
.	.	.	.	.	.	4cc\	E	.	.
!	!	!	!	!LO:LB:g=original	!	!	!	!	!
*	*	*	*	*xywh-#67:4526,2305,3392,740	*	*	*	*	*
2r	.	2d\	ri-	2B-/	-ſan-	2b-\	ri-	2f/	-san-
2c\	E	2A/	-pen-	2F/	-d'al	2a\	-pen-	2f/	-do_al
*	*	*	*	*	*	*	*	*	*Xij
=16-	=16-	=16-	=16-	=16-	=16-	=16-	=16-	=16-	=16-
2d\	ri-	2B-/	-san-	8B-/	pe-	2f\	-ſan-	8d/	pe-
.	.	.	.	8c/	-ri-	.	.	8e/	-ri-
.	.	.	.	8d\	-glio-	.	.	8f/	-glio-
.	.	.	.	8e\	-ſo	.	.	8g/	-ſo
2A/	-pen-	2F/	-do_al	1f\	cor-	2f\	-do_al	2a/	cor-
*	*	*	*Xij	*	*	*	*Xij	*	*
2B-\	-ſan-	8B-/	pe-	.	.	8d/	pe-	2f/	-ſo
!	!	!	!	!	!	!LO:SIC:v:t=custos f	!	!	!
*	*	*	*	*	*	*xywh-#523:4613,2247,3305,691	*	*	*
.	.	8c/	-ri-	.	.	8e/	-ri-	.	.
.	.	8d\	-glio-	.	.	8f\	-glio-	.	.
.	.	8e\	-ſo	.	.	8g\	-ſo	.	.
2F/	-d'al	2f\	cor-	4f\	-so	2a\	cor-	4r	.
.	.	.	.	4f\	al	.	.	4cc\	E
=17-	=17-	=17-	=17-	=17-	=17-	=17-	=17-	=17-	=17-
8B-\	pe-	2f\	-ſo	8d\	pe-	2b-\	-ſo	2dd\	ri-
8c\	-ri-	.	.	8e\	-ri-	.	.	.	.
8d\	-glio-	.	.	8f\	-glio-	.	.	.	.
8e\	-ſo	.	.	8g\	-ſo	.	.	.	.
!	!	!	!	!	!	!	!	!LO:SIC:v:t=custos b	!
2f\	cor-	4r	.	2a\	cor-	4r	.	2a/	-pen-
.	.	4F/	al	.	.	4f\	al	.	.
!	!	!	!	!	!	!	!	!LO:LB:g=original	!
*	*	*	*	*	*	*	*	*xywh-#675:4679,2200,3451,754	*
2B-\	-ſo	8B-/	pe-	2f\	-ſo	8f\	pe-	2b-/	-ſan-
.	.	8c/	-ri-	.	.	8e/	-ri-	.	.
.	.	8d\	-glio-	.	.	8d/	-glio-	.	.
.	.	8e\	-ſo	.	.	8c/	-ſo	.	.
2B-\	al	2f\	cor-	2r	.	2d/	cor-	2f/	-do_al
=18-	=18-	=18-	=18-	=18-	=18-	=18-	=18-	=18-	=18-
8G/	pe-	2B-/	-ſo	4r	.	2d/	-ſo	8b-\	pe-
!LO:SIC:v:t=custos B	!	!	!	!	!	!	!	!	!
8A/	-ri-	.	.	.	.	.	.	8cc\	-ri-
!LO:LB:g=original	!	!	!	!	!	!	!	!	!
*xywh-#219:4620,2335,3415,709	*	*	*	*	*	*	*	*	*
8B-\	-glio-	.	.	4d\	al	.	.	8dd\	-glio-
8c\	-ſo	.	.	.	.	.	.	8ee\	-ſo
1d\	cor-	4r	.	8d\	pe-	4r	.	1ff\	cor-
.	.	.	.	8e\	-ri-	.	.	.	.
*	*	*	*ij	*	*	*	*ij	*	*
!	!	!LO:SIC:v:t=custos d	!	!	!	!	!	!	!
.	.	4f\	al	8f\	-glio-	4d/	al	.	.
.	.	.	.	8g\	-ſo	.	.	.	.
!	!	!LO:LB:g=original	!	!	!	!	!	!	!
*	*	*xywh-#371:4797,2254,3364,740	*	*	*	*	*	*	*
.	.	8d\	pe-	4a\	cor-	8f\	pe-	.	.
.	.	8e\	-ri-	.	.	8g\	-ri-	.	.
.	.	8f\	-glio-	4d\	-ſo	8a\	-glio-	.	.
.	.	8g\	-so	.	.	8b-\	-so	.	.
!	!	!	!	!LO:SIC:v:t=custos g	!	!	!	!	!
2A/	-ſo	2a\	cor-	2r	.	2.cc\	cor-	4.ee\	-ſo
.	.	.	.	.	.	.	.	16dd\	.
.	.	.	.	.	.	.	.	16cc\	.
!	!	!	!	!LO:LB:g=original	!	!	!	!	!
=19-	=19-	=19-	=19-	=19-	=19-	=19-	=19-	=19-	=19-
*	*	*	*	*xywh-#67:4526,2871,3338,767	*	*	*	*	*
1r	.	1g\	-so	2r	.	.	.	1dd\	.
.	.	.	.	.	.	8b-\	.	.	.
.	.	.	.	.	.	8a\	.	.	.
!	!	!	!	!	!	!LO:MO:mod=!null:null	!	!	!
!	!	!	!	!	!	!LO:N:acc=#	!	!	!
.	.	.	.	4r	.	2bn\	.	.	.
.	.	.	.	4g\	Di-	.	.	.	.
0r	.	2r	.	4e\	-co	1cc\	-so	1r	.
*	*	*	*Xij	*	*	*	*Xij	*	*
.	.	.	.	4f\	fra	.	.	.	.
.	.	4r	.	2c/	-me	.	.	.	.
.	.	4g\	Di-	.	.	.	.	.	.
=20-	=20-	=20-	=20-	=20-	=20-	=20-	=20-	=20-	=20-
.	.	4e\	-co	2r	.	2r	.	1cc\	che
.	.	4f\	fra	.	.	.	.	.	.
.	.	2c/	me	4r	.	4r	.	.	.
*	*	*	*	*	*ij	*	*	*	*
!	!	!	!	!	!	!LO:SIC:v:t=custos g	!	!	!
.	.	.	.	4g\	Di-	4e/	Di-	.	.
!	!	!	!	!	!	!LO:LB:g=original	!	!	!
*	*	*	*	*	*	*xywh-#523:4656,2841,3294,594	*	*	*
2r	.	2r	.	4e\	-co	4g\	-co	2cc\	ſai
.	.	.	.	4f\	fra	4a\	fra	.	.
4r	.	4r	.	2c/	-me	2e/	me	4r	.
*	*	*	*ij	*	*Xij	*	*	*	*
4c\	Di-	4e\	Di-	.	.	.	.	4cc\	Di-
=21-	=21-	=21-	=21-	=21-	=21-	=21-	=21-	=21-	=21-
4A/	-co	4c/	-co	2r	.	1f\	che	4cc\	-co
4B-\	fra	4d\	fra	.	.	.	.	4b-/	fra
2F/	me	2c/	-me	4r	.	.	.	2a/	me
.	.	.	.	4c/	Di-	.	.	.	.
1f\	che	2r	.	4A/	-co	2f\	ſai	2r	.
.	.	.	.	4B-/	fra	.	.	.	.
.	.	4r	.	2F/	-me	4r	.	4r	.
*	*	*	*Xij	*	*	*	*	*	*ij
.	.	4c/	Di-	.	.	4a\	Di-	4cc\	Di-
=22-	=22-	=22-	=22-	=22-	=22-	=22-	=22-	=22-	=22-
1f\	ſai	4A/	-co	2r	.	4a\	-co	4cc\	-co
.	.	4B-/	fra	.	.	4d/	fra	4b-/	fra
!	!	!	!	!	!	!	!	!LO:SIC:v:t=custos b	!
.	.	2F/	-me	4r	.	2f\	me	2a/	me
*	*	*	*	*	*ij	*	*	*	*Xij
.	.	.	.	4f\	Di-	.	.	.	.
!	!	!	!	!	!	!	!	!LO:LB:g=original	!
*	*	*	*	*	*	*	*	*xywh-#675:4647,2804,3451,701	*
0r	.	2r	.	4d\	-co	1r	.	1b-\	che
!	!	!	!	!LO:SIC:v:t=custos B	!	!	!	!	!
.	.	.	.	4e-X\	fra	.	.	.	.
!	!	!	!	!LO:LB:g=original	!	!	!	!	!
*	*	*	*	*xywh-#67:4553,3450,3284,686	*	*	*	*	*
.	.	4r	.	2B-/	-me	.	.	.	.
*	*	*	*ij	*	*Xij	*	*	*	*
!	!	!LO:SIC:v:t=custos d	!	!	!	!	!	!	!
.	.	4f\	Di-	.	.	.	.	.	.
=23-	=23-	=23-	=23-	=23-	=23-	=23-	=23-	=23-	=23-
!	!	!LO:LB:g=original	!	!	!	!	!	!	!
*	*	*xywh-#371:4775,2875,3364,642	*	*	*	*	*	*	*
.	.	4d\	-co	2r	.	1b-y\	che	2b-/	ſai
.	.	4e-X\	fra	.	.	.	.	.	.
.	.	2B-/	-me	2f\	che	.	.	2dd\	che
*	*	*	*Xij	*	*	*	*	*	*
1B-\	che	2r	.	1f\	ſai	0b-\	ſai	0dd\	ſai
.	.	2f\	che	.	.	.	.	.	.
=24-	=24-	=24-	=24-	=24-	=24-	=24-	=24-	=24-	=24-
1B-\	ſai	1f\	ſai	2r	.	.	.	.	.
.	.	.	.	2B-/	che	.	.	.	.
1E-X/	ſe	1e-X\	ſe	2B-/	ſai	1g\	ſe	1ee-X\	ſe
.	.	.	.	2B-/	ſe	.	.	.	.
=25-	=25-	=25-	=25-	=25-	=25-	=25-	=25-	=25-	=25-
2E-y/	neb-	2B-/	ne-	2G/	ne-	2g\	ne-	2ee-y\	neb-
2C/	-bia_ò	2c/	-bia_ò	2G/	-bia_ò	2g\	-bia_ò	2ee-\	-bia_ò
0G/	piog-	4B-/	piog-	4G/	piog-	4b-\	piog-	4dd\	piog-
.	.	4c/	.	4A/	.	4a\	.	4cc\	.
.	.	4d\	.	4B-/	.	4g\	.	4b-/	.
.	.	4c/	.	4c/	.	4a\	.	4a/	.
=26-	=26-	=26-	=26-	=26-	=26-	=26-	=26-	=26-	=26-
.	.	4B-/	.	4d\	.	4b-\	.	4g/	.
.	.	4A/	.	4c/	.	4cc\	.	4a/	.
!	!	!	!	!	!	!LO:SIC:v:t=custos g	!	!	!
*	*	*	*	*	*	*xywh-#523:4634,3327,3369,766	*	*	*
.	.	4G/	.	4B-/	.	2dd\	.	4b-/	.
.	.	4A/	.	4A/	.	.	.	4cc\	.
!	!	!LO:MO:mod=!null:null	!	!	!	!	!	!	!
!LO:SIC:v:t=custos C	!	!LO:N:acc=#	!	!	!LO:LB:g=original	!	!	!	!
1G/	-gia	2Bn/	.	2G/	.	1g\	-gia	2dd\	.
.	.	2B/	-gia	2d\	-gia	.	.	2g/	-gia
!LO:LB:g=original	!	!	!	!	!	!	!	!	!
=27-	=27-	=27-	=27-	=27-	=27-	=27-	=27-	=27-	=27-
*xywh-#219:4631,2902,3360,709	*	*	*	*	*	*	*	*	*
4C/	Ti	4c/	Ti-	4eny\	Ti	4g\	Ti	4gg\	Ti
4C/	rin-	4c/	-rin-	4e\	rin-	4g\	rin-	4gg\	rin-
!	!	!	!	!LO:SIC:v:t=custos g	!	!	!	!LO:SIC:v:t=custos dd	!
1C/	-chiu-	1c\	-chiu-	1e\	-chiu	1g\	-chiu-	1eeny\	-chiu-
!	!	!LO:MO:mod=!null:null	!	!	!	!	!	!	!
!	!	!LO:N:acc=#	!	!LO:LB:g=original	!	!	!	!LO:LB:g=original	!
*	*	*	*	*xywh-#67:4539,3988,3352,726	*	*	*	*xywh-#675:4701,3289,3451,733	*
!	!	!	!	!	!	!	!	!	!LO:MO:mod=-d'il
4G/	-d'il	4Bn/	-d'il	4g\	d'il	4g\	-d'il	4dd\	-de_il
!	!	!LO:SIC:v:t=custos c	!	!	!	!	!	!	!
4C/	ca-	4c/	ca-	4e\	ca-	4g\	ca-	4ee\	ca-
!	!	!LO:LB:g=original	!	!	!	!	!	!	!
=28-	=28-	=28-	=28-	=28-	=28-	=28-	=28-	=28-	=28-
*	*	*xywh-#371:4754,3376,3299,696	*	*	*	*	*	*	*
1F/	-min	2c/	-min	2f\	-min	2a\	-min	2cc\	-min
.	.	2F/	de	4r	.	4r	.	2cc\	de
.	.	.	.	4f\	de	4a\	de	.	.
0r	.	2B-y/	l'al-	2f\	l'al-	2b-\	l'al-	2dd\	l'al-
.	.	2A/	-tra	1a\	-tra	2cc\	-tra	2ee\	-tra
=29-	=29-	=29-	=29-	=29-	=29-	=29-	=29-	=29-	=29-
.	.	1d\	vi-	.	.	2a\	vi-	1ff\	vi-
!	!	!	!	!	!	!LO:MO:mod=!null:null	!	!	!
!	!	!	!	!	!	!LO:N:acc=#	!	!	!
.	.	.	.	2f\	vi-	2bn\	.	.	.
2r	.	1c\	-ta	2g\	-ta	1cc\	-ta	1ee\	-ta
1c\	E	.	.	1e\	E	.	.	.	.
=30-	=30-	=30-	=30-	=30-	=30-	=30-	=30-	=30-	=30-
.	.	0r	.	.	.	1g\	E	0r	.
2B-\	mo-	.	.	2d\	mo-	.	.	.	.
2.B-\	-rir	.	.	2.d\	-rir	2f\	mo-	.	.
.	.	.	.	.	.	2.f\	-rir	.	.
8A/	ti	.	.	8c/	ti	.	.	.	.
!	!LO:MO:mod=con-	!	!	!	!LO:MO:mod=con-	!	!	!	!
8G/	co-	.	.	8B-/	co-	.	.	.	.
=31-	=31-	=31-	=31-	=31-	=31-	=31-	=31-	=31-	=31-
!	!LO:MO:mod=-vien	!	!	!	!LO:MO:mod=-vien	!	!	!	!
1A\	-uien	2r	.	2c/	-uien	.	.	2r	.
.	.	.	.	.	.	8e/	-ti	.	.
!	!	!	!	!	!	!	!LO:MO:mod=con-	!	!
.	.	.	.	.	.	8d/	co-	.	.
!	!	!	!	!	!	!	!LO:MO:mod=-vien	!	!
.	.	2c/	in	4r	.	4e/	-uien	2cc\	in
!	!	!	!	!	!	!LO:SIC:v:t=custos a	!	!	!
.	.	.	.	4e\	in	4a\	in	.	.
!	!	!	!	!	!	!LO:LB:g=original	!	!	!
*	*	*	*	*	*	*xywh-#523:4602,3910,3369,648	*	*	*
0r	.	2A/	queſ-	2f\	queſ-	2a\	queſ-	2cc\	queſ-
.	.	2c/	-to	2e\	-to	2g\	-to	4cc\	-to
.	.	.	.	.	.	.	.	2cc\	bo-
=32-	=32-	=32-	=32-	=32-	=32-	=32-	=32-	=32-	=32-
!	!	!	!LO:MO:mod=bo-	!LO:SIC:v:s=1e	!	!	!	!	!
!	!	!	!	!	!	!	!LO:MO:mod=bo-	!	!
*	*	*	*	*xywh-#67:4512,4594,3338,605	*	*	*	*	*
.	.	1G/	boſ-	1d\	bo-	1g\	boſ-	.	.
!	!	!	!	!	!	!	!	!LO:MO:mod=!null:null	!
!	!	!	!	!	!	!	!	!LO:N:acc=#	!
.	.	.	.	.	.	.	.	8bn/	.
.	.	.	.	.	.	.	.	8a/	.
!	!	!	!	!	!	!	!	!LO:MO:mod=!null:null	!
!	!	!	!	!	!	!	!	!LO:N:acc=#	!
.	.	.	.	.	.	.	.	2bn/	.
!	!	!	!LO:MO:mod=-sco	!	!	!	!LO:MO:mod=-sco	!	!
2r	.	2c/	-co	1e\	-ſco	1g\	-co	1cc\	-ſco
*	*ij	*	*	*	*	*	*	*	*
1c\	E	1eny\	E	.	.	.	.	.	.
=33-	=33-	=33-	=33-	=33-	=33-	=33-	=33-	=33-	=33-
.	.	.	.	1g\	E	0r	.	0r	.
2B-\	mo-	2d\	mo-	.	.	.	.	.	.
2.B-\	-rir	2.d\	-rir	2f\	mo-	.	.	.	.
.	.	.	.	2.f\	-rir	.	.	.	.
8A/	ti	8c/	ti-	.	.	.	.	.	.
!LO:SIC:v:t=custos A	!LO:MO:mod=con-	!	!	!	!	!	!	!	!
8G/	co-	8B-/	-con-	.	.	.	.	.	.
!LO:LB:g=original	!	!	!	!	!	!	!	!	!
=34-	=34-	=34-	=34-	=34-	=34-	=34-	=34-	=34-	=34-
*xywh-#219:4653,3448,3338,676	*	*	*	*	*	*	*	*	*
!	!LO:MO:mod=-vien	!	!LO:MO:mod=-vien	!	!	!	!	!	!
1A\	-uien	1c\	-uien	.	.	2r	.	1cc\	E
*	*Xij	*	*	*	*	*	*	*	*
.	.	.	.	8e\	ti	.	.	.	.
.	.	.	.	8d\	con-	.	.	.	.
!	!	!	!	!	!LO:MO:mod=-vien	!	!	!	!
.	.	.	.	2e\	-uien	1a\	E	.	.
!	!	!	!	!	!	!	!	!LO:SIC:v:t=custos cc	!
*	*	*	*	*	*	*	*	*xywh-#675:4690,3871,3364,636	*
00r	.	2f\	E	0r	.	.	.	2cc\	mo-
!	!	!LO:SIC:v:t=custos e	!	!	!	!	!LO:LB:g=original	!	!
.	.	2f\	mo-	.	.	2a\	mo-	2.cc\	-rir
!	!	!LO:LB:g=original	!	!	!	!	!	!	!
=35-	=35-	=35-	=35-	=35-	=35-	=35-	=35-	=35-	=35-
*	*	*xywh-#371:4775,3942,3277,653	*	*	*	*	*	*	*
.	.	2.e-X\	-rir-	.	.	2.g\	-rir	.	.
.	.	.	.	.	.	.	.	8b-y/	ti
.	.	.	.	.	.	.	.	8a/	con-
!	!	!	!	!	!	!	!	!	!LO:MO:mod=-vien
.	.	.	.	.	.	.	.	2b-/	-uien
.	.	8d\	-ti	.	.	8f\	ti	.	.
.	.	8c/	con-	.	.	8e/	con-	.	.
!	!	!	!LO:MO:mod=-vien	!	!	!	!LO:MO:mod=-vien	!	!
.	.	1d\	-uien	2r	.	2f\	-uien	2r	.
.	.	.	.	2f\	in	2a\	in	2ff\	in
=36-	=36-	=36-	=36-	=36-	=36-	=36-	=36-	=36-	=36-
.	.	4r	.	2d\	queſ-	2b-y\	queſ-	2ff\	queſ-
.	.	4f\	in	.	.	.	.	.	.
.	.	4f\	queſ-	2f\	-to	2a\	-to	4cc\	-to
.	.	4a\	-to	.	.	.	.	2ff\	bo-
!	!	!	!LO:MO:mod=bo-	!	!LO:MO:mod=bo-	!	!LO:MO:mod=bo-	!	!
1r	.	1g\	boſ-	1c\	boſ-	1cc\	boſ-	.	.
.	.	.	.	.	.	.	.	8ee\	.
.	.	.	.	.	.	.	.	8dd\	.
.	.	.	.	.	.	.	.	2ee\	.
=37-	=37-	=37-	=37-	=37-	=37-	=37-	=37-	=37-	=37-
!	!	!	!LO:MO:mod=-sco	!	!LO:MO:mod=-sco	!	!LO:MO:mod=-sco	!	!
2r	.	2a\	-co	2F/	-co	2cc\	-co	2ff\	-ſco
*	*	*	*ij	*	*ij	*	*	*	*
2F/	in	2A/	in	2c/	in	2a\	in	2cc\	in
2D/	queſ-	2B-/	ques-	2F/	ques-	2f\	queſ-	2dd\	queſ-
2F/	-to	2A/	-to	2c/	-to	4f\	-to	2cc\	-to
!	!	!	!	!	!	!LO:SIC:v:t=custos e	!	!	!
.	.	.	.	.	.	2f\	bo-	.	.
=38-	=38-	=38-	=38-	=38-	=38-	=38-	=38-	=38-	=38-
!	!LO:MO:mod=bo-	!	!LO:MO:mod=bo-	!	!LO:MO:mod=bo-	!	!	!	!LO:MO:mod=bo-
1C/	boſ-	1G/	bos-	1c\	bos-	.	.	1cc\	boſ-
!	!	!	!	!	!	!LO:LB:g=original	!	!	!
*	*	*	*	*	*	*xywh-#523:4645,4450,3369,756	*	*	*
.	.	.	.	.	.	8e\	.	.	.
.	.	.	.	.	.	8d/	.	.	.
.	.	.	.	.	.	2e/	.	.	.
!	!LO:MO:mod=-sco.	!	!LO:MO:mod=-sco.	!	!LO:MO:mod=-sco.	!	!LO:MO:mod=-sco.	!	!LO:MO:mod=-sco.
1F/l	-co.	1F/l	-co	1c\l	-co	1f\l	-ſco	1a/l	-co
*	*	*	*Xij	*	*Xij	*	*	*	*
==	==	==	==	==	==	==	==	==	==
*-	*-	*-	*-	*-	*-	*-	*-	*-	*-
!!!system-decoration: [(*)]
!!!RDF**kern: l = terminal long
!!!filter-modern: tie -s | humtr -p | sic -sq | shed -e "s/LO:DY:(a|b|rj)/LO:dy:$1/L" | shed -e "s/TX(.*):t=P:/tx$1:t=P:/LG" | modori -m | autostem -r | shed -e "s/yy//" | shed -k -e "s/\(y([^y])/($1/" | shed -e "s/-//B" | shed -k -e "s/[<>]//g" | shed -e "s/^custos:/Xcustos:/I" | shed -k -e "s/r[a-gA-G]+/r/D" | rid -li
!!!EED-modern: Antoni Szymański
!!!END-modern: 2022-08-11
!!!ENC: Andrzej Gręziak
!!!END: 2022-06-30
!!!ENC: Andrzej Borzym
!!!END: 2022-07-16
!!!ENC-iiif: Zuzanna Daniec
!!!END-iiif: 2022-10-12
!!!YEC: Copyright 2022 Narodowy Instytut Fryderyka Chopina (https://polishscores.org)
!!!YEM: License CC-BY-4.0 (https://creativecommons.org/licenses/by/4.0)
